X:1
T:St. Philip, 777
T:St. Philip, 777
T:William Henry Monk, 1861
T:Public Domain Courtesy of the Cyber Hymnal™
C:William Henry Monk, 1861
Z:Public Domain
Z:Courtesy of the Cyber Hymnal™
%%score ( 1 2 ) ( 3 4 )
L:1/8
Q:1/4=128
M:3/4
K:Eb
V:1 treble 
V:2 treble 
V:3 bass 
V:4 bass 
V:1
 [B,E]4 [CE]2 | [DF]4 [EG]2 | (A2 G2) [DF]2 | E6 | [B,G]4 [EA]2 | [DB]4 [EB]2 | (c2 B2) [DA]2 | %7
 [EG]6 | [EG]4 [B,F]2 | [EA]4 [EG]2 | [EF]4 [DF]2 | E6 |] %12
V:2
 x6 | x6 | E4 x2 | E6 | x6 | x6 | E4 x2 | x6 | x6 | x6 | x6 | E6 |] %12
V:3
 [E,G,]4 [C,G,]2 | [B,,B,]4 [E,B,]2 | ([A,,C]2 [B,,B,]2) [B,,A,]2 | [E,G,]6 | E,4 [C,E,]2 | %5
 [B,,F,]4 [G,,B,]2 | [A,,A,]2 [G,,E,]2 [B,,F,]2 | E,6 | [E,B,]4 [D,B,]2 | [C,A,]4 [G,,B,]2 | %10
 [A,,C]4 [B,,B,]2 | [E,G,]6 |] %12
V:4
 x6 | x6 | x6 | x6 | E,4 x2 | x6 | x6 | E,6 | x6 | x6 | x6 | x6 |] %12

